X: 6400
T: Castle Kelly
R: reel
M: 4/4
K: Aminor
|:A|A2 cA A2 cA|GEEE G2 EG|ABcA GAcd|egdB cAAG|
A2 cA A2 cA|GEEE G2 EG|ABcA GAcd|egdB cAA:|
|:a|agec d2 ed|cAGE G3 a|agec d2 cd|eaag a3 a|
agec d2 ed|cAGE G2 EG|ABcA GAcd|egdB cAA:|

